X:1
T:O What a Savior
T:O What a Savior
T:Ira David Sankey
T:Frances Jane (Fanny) Crosby, 1887
T:Public Domain Courtesy of the Cyber Hymnal™
T:Public Domain Courtesy of the Cyber Hymnal™
C:Ira David Sankey
Z:Public Domain
Z:Courtesy of the Cyber Hymnal™
%%score ( 1 2 ) 3
L:1/8
Q:1/4=103
M:4/4
K:Bb
V:1 treble 
V:2 treble 
V:3 bass 
V:1
 [Fd]2 [Fd]>[Ec] [DB]2 F2 | [EG][GB][FA][EG] [DF]4 | [DB][DB][FB][FB] [DB][FB][=EA][EB] | %3
w: 1.~Come to the Sav- ior,|hear His lov- ing voice;|Ne- ver will you find a friend so|
w: 2.~Blest words of com- fort,|gent- ly now they fall,|Je- sus is the life, the truth, the|
w: 3.~Soft- ly the Spir- it|whis- pers in the heart,|Do not slight the Sav- ior’s of- fered|
w: 4.~Light in the dark- ness,|joy in a- ny pain,|Ref- uge for the wear- y and op-|
 [Fc]6 z2 | [Fd]2 [Fd]>[Ec] [DB]2 F2 | [EG][GB][FA][EG] [DF]4 | [FB][FB][DB][DB] [Fd]2 [Ec]2 | %7
w: true;|Now He is wait- ing,|trust Him and re- joice,|Ten- der- ly He call- eth|
w: way;|Come to the fount- ain,|there is room for all;|Je- sus bids you come to-|
w: grace;|Glad- ly re- ceive Him,|let Him not de- part;|Hap- py they who seek His|
w: pressed;|Still He is wait- ing,|call- ing yet a- gain;|Come, and He will give you|
 [DB]6 z2 ||"^Refrain" [Fc]2 [Fc]>[Fd] [Fe]2 [FA]2 | [FB][FA][FB][Ec] d4 | %10
w: you.|||
w: day.|O, what a Sav- ior|stand- ing at the door,|
w: face.|||
w: rest.|||
 [Fc]2 [Fc]>[Fd] [Fe]2 [FA]2 | [FB][FA][FB][Fd] [Fc]4 | [Fd]2 [Fd]>[Ec] [DB]2 F2 | %13
w: |||
w: Haste while He lin- gers,|par- don now im- plore;|Still He is wait- ing,|
w: |||
w: |||
 [EG][GB][FA][EG] [DF]4 | [FB][FB][DB][DB] [Fd]2 [Ec]2 | [DB]8 |] %16
w: |||
w: grieve His love no more,|Ten- der- ly He call- eth|you.|
w: |||
w: |||
V:2
 x6 F2 | x8 | x8 | x8 | x6 F2 | x8 | x8 | x8 || x8 | x4 (D2 F2) | x8 | x8 | x6 F2 | x8 | x8 | x8 |] %16
V:3
 [B,,B,]2 [B,,B,]>[B,,F,] [B,,F,]2 [D,B,]2 | [E,B,][E,B,][E,B,][E,B,] [B,,B,]4 | %2
 [B,,F,][B,,F,][D,B,][D,B,] [G,B,][G,D][C,C][C,G,] | [F,A,]6 z2 | %4
 [B,,B,]2 [B,,B,]>[B,,F,] [B,,F,]2 [D,B,]2 | [E,B,][E,B,][E,B,][E,B,] [B,,B,]4 | %6
 [D,B,][D,B,][G,B,][G,B,] [F,B,]2 [F,A,]2 | [B,,B,]6 z2 || [F,A,]2 [F,A,]>[F,B,] [F,C]2 [E,C]2 | %9
 [D,B,][E,C][D,B,][C,A,] [B,,B,]4 | [F,A,]2 [F,A,]>[F,B,] [F,C]2 [E,C]2 | %11
 [D,B,][C,E][B,,D][B,,B,] [F,A,]4 | [B,,B,]2 [B,,B,]>[B,,F,] [B,,F,]2 [D,B,]2 | %13
 [E,B,][E,B,][E,B,][E,B,] [B,,B,]4 | [D,B,][D,B,][G,B,][G,B,] [F,B,]2 [F,A,]2 | [B,,B,]8 |] %16

